web/packages/design/src/ResourceIcon/assets/gitlab.svg

<svg width="72" height="72" viewBox="0 0 72 72" fill="none" xmlns="http://www.w3.org/2000/svg">
<path d="M70.8015 28.5721L70.7003 28.3134L60.9006 2.73808C60.7012 2.23681 60.3481 1.81159 59.8921 1.52342C59.4358 1.24014 58.9035 1.10371 58.3672 1.13253C57.8308 1.16136 57.3163 1.35406 56.8929 1.68462C56.4743 2.02467 56.1706 2.48545 56.0232 3.00425L49.4063 23.2486H22.6125L15.9956 3.00425C15.8521 2.48262 15.5477 2.01954 15.1258 1.68087C14.7025 1.35031 14.1879 1.15761 13.6516 1.12878C13.1152 1.09996 12.583 1.23639 12.1267 1.51967C11.6716 1.809 11.3189 2.23386 11.1182 2.73433L1.29967 28.2985L1.2022 28.5571C-0.208521 32.2431 -0.382652 36.2878 0.706063 40.0814C1.79478 43.875 4.08732 47.2118 7.23802 49.5888L7.27176 49.615L7.36173 49.6787L22.2901 60.8581L29.6755 66.4478L34.1743 69.8444C34.7005 70.2439 35.343 70.4602 36.0037 70.4602C36.6645 70.4602 37.307 70.2439 37.8332 69.8444L42.332 66.4478L49.7174 60.8581L64.7357 49.6113L64.7732 49.5813C67.9169 47.2039 70.2041 43.8705 71.2911 40.082C72.3782 36.2936 72.2064 32.2546 70.8015 28.5721Z" fill="#E24329"/>
<path d="M70.8015 28.5722L70.7003 28.3135C65.9253 29.2936 61.4256 31.3162 57.5227 34.2368L36 50.511C43.3292 56.0557 49.7099 60.8732 49.7099 60.8732L64.7282 49.6263L64.7657 49.5963C67.9139 47.219 70.2046 43.8835 71.2932 40.0918C72.3817 36.3001 72.2092 32.2573 70.8015 28.5722Z" fill="#FC6D26"/>
<path d="M22.29 60.8733L29.6755 66.463L34.1742 69.8596C34.7005 70.2591 35.343 70.4754 36.0037 70.4754C36.6644 70.4754 37.307 70.2591 37.8332 69.8596L42.332 66.463L49.7174 60.8733C49.7174 60.8733 43.3292 56.0409 36 50.5112C28.6708 56.0409 22.29 60.8733 22.29 60.8733Z" fill="#FCA326"/>
<path d="M14.4735 34.2367C10.5738 31.3101 6.0751 29.2822 1.29967 28.2983L1.2022 28.557C-0.208521 32.243 -0.382652 36.2877 0.706063 40.0813C1.79478 43.8749 4.08732 47.2117 7.23802 49.5886L7.27176 49.6149L7.36173 49.6786L22.2901 60.858C22.2901 60.858 28.6633 56.0406 36 50.4959L14.4735 34.2367Z" fill="#FC6D26"/>
</svg>

<svg xmlns="http://www.w3.org/2000/svg" width="72" height="72" fill="none" viewBox="0 0 72 72"><path fill="#e24329" d="m70.802 28.572-.102-.259-9.8-25.575a2.55 2.55 0 0 0-1.008-1.215 2.62 2.62 0 0 0-3 .162c-.418.34-.721.8-.869 1.32l-6.617 20.244H22.613L15.996 3.004a2.57 2.57 0 0 0-.87-1.323 2.62 2.62 0 0 0-3-.161 2.6 2.6 0 0 0-1.008 1.214L1.3 28.3l-.098.258A18.2 18.2 0 0 0 7.238 49.59l.034.026.09.064L22.29 60.86l7.386 5.589 4.498 3.396a3.025 3.025 0 0 0 3.66 0l4.498-3.396 7.385-5.59 15.019-11.247.037-.03a18.205 18.205 0 0 0 6.029-21.009"/><path fill="#fc6d26" d="m70.802 28.572-.102-.258a33.1 33.1 0 0 0-13.177 5.923L36 50.51c7.33 5.545 13.71 10.362 13.71 10.362l15.018-11.247.038-.03A18.205 18.205 0 0 0 70.8 28.572"/><path fill="#fca326" d="m22.29 60.873 7.386 5.59 4.498 3.397a3.026 3.026 0 0 0 3.66 0l4.498-3.397 7.385-5.59S43.33 56.041 36 50.511c-7.33 5.53-13.71 10.362-13.71 10.362"/><path fill="#fc6d26" d="M14.474 34.237A33.1 33.1 0 0 0 1.3 28.298l-.098.259a18.2 18.2 0 0 0 6.036 21.032l.034.026.09.064L22.29 60.858 36 50.496z"/></svg>
